**kern	**kern
*staff2	*staff1
*clefF4	*clefG2
*k[f#]	*k[f#]
*met(c|)	*met(c|)
*M2/2	*M2/2
*G:	*G:
=-	=-
4B 4d [4g	4GG 4BB 4D 4G
16gLL]	4r
16b)	.
16dd)	.
16ggJJ)	.
8bb)	4r
16.r	.
32g	.
(8.gL	4GG 4G
32f#LL	.
32gJJJ)	.
=202	=202
4f#	2FF# 2AA 2D 2F#
16aLL)	.
16dd)	.
16ff#)	.
16aaJJ)	.
8ddd)	4r
16.r	.
32f#	.
(8.f#L	4FF# 4F#
32eLL	.
32f#JJJ)	.
=203	=203
8e	4EE 4E
4eee	.
.	4r
32dddLLL	.
32ccc#	.
32bb	.
32aaJJJ	.
32ggLLL	2AAA 2AA
32ff#	.
32ee	.
32ddJJ	.
32cc#LL	.
32b	.
32a	.
32g#JJJ	.
32gLLL	.
32f#	.
32e	.
32dJJ	.
*clefF4	*
32c#LL	.
32B	.
32A	.
32GJJJ	.
=204	=204
(8AL	4r
8GJ)	.
(4.F#	4D
.	4DD
8G#L	.
8A	4r
8BJ)	.
=205	=205
*^	*
1c	8r	2r
.	8E	.
.	8F#L	.
.	8GJ	.
.	[2A	8r
.	.	(8DD
.	.	8EEL
.	.	8FF#J)
=206	=206	=206
1ryy	8AL] 8B	(8GGL
.	8AJ 8B	8AA
.	8r	8BB
.	8G 8B	8FF#J
.	8r	8GGL
.	8B- 8g	8DD
.	8r	8EE-
.	8B- 8g	8CC#J
*v	*v	*
=207	=207
8r	2DD)
(8G 8B	.
8AL 8c	.
8A#J 8c#	.
8BL 8d	4r
8AJ) 8c	.
8r	4DD
8C 8D 8F# 8A	.
=208	=208
(2C [2D 2F# 2A	[2GGG
8BB) 8D] 8G	8GGG]
8r	8r
4r	4r
=||!|:	=||!|:
*-	*-
